images/services/2.svg

<svg width="42" height="36" viewBox="0 0 42 36" fill="none" xmlns="http://www.w3.org/2000/svg">
<path d="M12.4688 10.7784H8.53125V7.49719H12.4688V10.7784Z" fill="#FFC94F"/>
<path d="M20.3438 10.7784H16.4062V7.49719H20.3438V10.7784Z" fill="#FFC94F"/>
<path d="M24.9375 17.3409H20.3438V14.0597H24.9375V17.3409Z" fill="#FFC94F"/>
<path d="M16.4062 17.3409H12.4688V14.0597H16.4062V17.3409Z" fill="#FFC94F"/>
<path d="M8.53125 17.3409H4.59375V14.0597H8.53125V17.3409Z" fill="#FFC94F"/>
<path d="M32.8125 35.7159C30.28 35.7159 28.2188 33.6547 28.2188 31.1222C28.2188 28.5897 30.28 26.5284 32.8125 26.5284C35.345 26.5284 37.4062 28.5897 37.4062 31.1222C37.4062 33.6547 35.345 35.7159 32.8125 35.7159ZM32.8125 29.8097C32.0887 29.8097 31.5 30.3983 31.5 31.1222C31.5 31.846 32.0887 32.4347 32.8125 32.4347C33.5363 32.4347 34.125 31.846 34.125 31.1222C34.125 30.3983 33.5363 29.8097 32.8125 29.8097Z" fill="#FFC94F"/>
<path d="M11.8125 35.7159C9.28003 35.7159 7.21875 33.6547 7.21875 31.1222C7.21875 28.5897 9.28003 26.5284 11.8125 26.5284C14.345 26.5284 16.4062 28.5897 16.4062 31.1222C16.4062 33.6547 14.345 35.7159 11.8125 35.7159ZM11.8125 29.8097C11.0887 29.8097 10.5 30.3983 10.5 31.1222C10.5 31.846 11.0887 32.4347 11.8125 32.4347C12.5363 32.4347 13.125 31.846 13.125 31.1222C13.125 30.3983 12.5363 29.8097 11.8125 29.8097Z" fill="#FFC94F"/>
<path d="M16.4062 4.21594H12.4688V0.934692H16.4062V4.21594Z" fill="#FFC94F"/>
<path d="M39.5299 20.6222L38.6544 20.1845L37.7626 14.8334C37.4981 13.244 36.1364 12.0909 34.526 12.0909H27.5625C26.4948 12.0909 25.5537 12.6113 24.9546 13.4034H22.9688V6.84094H19.0312V0.278442H9.84375V6.84094H5.90625V13.4034H1.96875V19.9659C1.24491 19.9659 0.65625 20.5546 0.65625 21.2784V22.5909C0.65625 23.3148 1.24491 23.9034 1.96875 23.9034V29.8097C1.96875 30.8951 2.85206 31.7784 3.9375 31.7784H7.27125C7.24041 31.5632 7.21875 31.3453 7.21875 31.1222C7.21875 30.8991 7.24041 30.6812 7.27125 30.4659H3.9375C3.57525 30.4659 3.28125 30.1719 3.28125 29.8097V29.1534H6.41878L7.40316 25.2159H3.28125V23.9034H24.2812V30.4659H16.3538C16.3846 30.6812 16.4062 30.8991 16.4062 31.1222C16.4062 31.3453 16.3846 31.5632 16.3538 31.7784H28.2713C28.2404 31.5632 28.2188 31.3453 28.2188 31.1222C28.2188 30.8991 28.2404 30.6812 28.2713 30.4659H28.2188V22.5909H33.4688H34.125H34.7812V26.978C35.2728 27.2123 35.7171 27.5286 36.0938 27.9138V19.3097L35.446 15.7883C35.3305 15.1674 34.7878 14.7159 34.1558 14.7159H28.2188C27.4949 14.7159 26.9062 15.3046 26.9062 16.0284V30.4659H25.5938V15.3722C25.5938 14.2868 26.4771 13.4034 27.5625 13.4034H34.526C35.4926 13.4034 36.309 14.0958 36.4678 15.0487L37.4699 21.0599L38.9425 21.7962C39.6139 22.1322 40.0312 22.8068 40.0312 23.5569V23.9034H37.4062V26.934L40.0312 28.2465V29.8097C40.0312 30.1719 39.7373 30.4659 39.375 30.4659H37.3537C37.3846 30.6812 37.4062 30.8991 37.4062 31.1222C37.4062 31.3453 37.3846 31.5632 37.3537 31.7784H39.375C40.4604 31.7784 41.3438 30.8951 41.3438 29.8097V23.5569C41.3438 22.3061 40.6488 21.1826 39.5299 20.6222ZM5.72184 26.5284L5.39372 27.8409H3.28125V26.5284H5.72184ZM34.125 21.2784H33.4688C32.7449 21.2784 32.1562 20.6898 32.1562 19.9659H34.7812V21.2784H34.125ZM34.1552 16.0284L34.6467 18.6534H32.1562C31.4324 18.6534 30.8438 19.2421 30.8438 19.9659C30.8438 20.4463 30.9829 20.8906 31.2086 21.2784H28.2188V16.0284H34.1552ZM24.2812 15.3722V19.9659H19.0312V14.7159H24.3475C24.3042 14.9279 24.2812 15.1478 24.2812 15.3722ZM17.7188 14.7159V19.9659H11.1562V14.7159H17.7188ZM21.6562 13.4034H19.0312H17.7188H15.0938V8.15344H21.6562V13.4034ZM11.1562 1.59094H17.7188V6.84094H15.0938H13.7812H11.1562V1.59094ZM7.21875 8.15344H13.7812V13.4034H11.1562H9.84375H7.21875V8.15344ZM3.28125 14.7159H9.84375V19.9659H3.28125V14.7159ZM1.96875 22.5909V21.2784H24.2812V22.5909H1.96875ZM38.7188 26.1229V25.2159H40.0312V26.7791L38.7188 26.1229Z" fill="#535353"/>
<path d="M32.8125 29.1534C31.7271 29.1534 30.8438 30.0368 30.8438 31.1222C30.8438 32.2076 31.7271 33.0909 32.8125 33.0909C33.8979 33.0909 34.7812 32.2076 34.7812 31.1222C34.7812 30.0368 33.8979 29.1534 32.8125 29.1534ZM32.8125 31.7784C32.4503 31.7784 32.1562 31.4844 32.1562 31.1222C32.1562 30.7599 32.4503 30.4659 32.8125 30.4659C33.1748 30.4659 33.4688 30.7599 33.4688 31.1222C33.4688 31.4844 33.1748 31.7784 32.8125 31.7784Z" fill="#535353"/>
<path d="M11.8125 29.1534C10.7271 29.1534 9.84375 30.0368 9.84375 31.1222C9.84375 32.2076 10.7271 33.0909 11.8125 33.0909C12.8979 33.0909 13.7812 32.2076 13.7812 31.1222C13.7812 30.0368 12.8979 29.1534 11.8125 29.1534ZM11.8125 31.7784C11.4503 31.7784 11.1562 31.4844 11.1562 31.1222C11.1562 30.7599 11.4503 30.4659 11.8125 30.4659C12.1748 30.4659 12.4688 30.7599 12.4688 31.1222C12.4688 31.4844 12.1748 31.7784 11.8125 31.7784Z" fill="#535353"/>
</svg>

<svg width="42" height="36" fill="none" xmlns="http://www.w3.org/2000/svg"><path d="M12.469 10.778H8.53v-3.28h3.938v3.28ZM20.344 10.778h-3.938v-3.28h3.938v3.28ZM24.938 17.34h-4.594v-3.28h4.593v3.28ZM16.406 17.34H12.47v-3.28h3.937v3.28ZM8.531 17.34H4.594v-3.28H8.53v3.28ZM32.813 35.716a4.6 4.6 0 0 1-4.594-4.594 4.6 4.6 0 0 1 4.593-4.594 4.6 4.6 0 0 1 4.594 4.594 4.6 4.6 0 0 1-4.593 4.594Zm0-5.906c-.724 0-1.313.588-1.313 1.312a1.314 1.314 0 0 0 2.625 0c0-.724-.589-1.312-1.313-1.312ZM11.813 35.716a4.6 4.6 0 0 1-4.594-4.594 4.6 4.6 0 0 1 4.593-4.594 4.6 4.6 0 0 1 4.594 4.594 4.6 4.6 0 0 1-4.593 4.594Zm0-5.906c-.724 0-1.313.588-1.313 1.312a1.314 1.314 0 0 0 2.625 0c0-.724-.589-1.312-1.313-1.312ZM16.406 4.216H12.47V.935h3.937v3.28Z" fill="#FFC94F"/><path d="m39.53 20.622-.876-.438-.891-5.35a3.27 3.27 0 0 0-3.237-2.743h-6.964c-1.067 0-2.008.52-2.607 1.312h-1.986V6.841H19.03V.278H9.844v6.563H5.906v6.562H1.97v6.563c-.724 0-1.313.589-1.313 1.312v1.313c0 .724.589 1.312 1.313 1.312v5.907c0 1.085.883 1.968 1.968 1.968h3.334a4.61 4.61 0 0 1-.052-.656c0-.223.021-.44.052-.656H3.938a.656.656 0 0 1-.657-.656v-.657H6.42l.984-3.937H3.281v-1.313h21v6.563h-7.927c.03.215.052.433.052.656 0 .223-.021.441-.052.656H28.27a4.601 4.601 0 0 1-.052-.656c0-.223.021-.44.052-.656h-.052V22.59H34.78v4.387c.492.234.936.55 1.313.936V19.31l-.648-3.522a1.313 1.313 0 0 0-1.29-1.072h-5.937c-.724 0-1.313.589-1.313 1.312v14.438h-1.312V15.372c0-1.085.883-1.969 1.968-1.969h6.964c.967 0 1.783.693 1.942 1.646l1.002 6.01 1.473.737a1.959 1.959 0 0 1 1.088 1.76v.347h-2.625v3.031l2.625 1.313v1.563a.656.656 0 0 1-.656.656h-2.021c.03.215.052.433.052.656 0 .223-.021.441-.052.656h2.021a1.971 1.971 0 0 0 1.969-1.968v-6.253c0-1.25-.695-2.374-1.814-2.935ZM5.722 26.528l-.328 1.313H3.28v-1.313h2.44Zm28.403-5.25h-.656a1.314 1.314 0 0 1-1.313-1.312h2.625v1.312h-.656Zm.03-5.25.492 2.625h-2.49c-.725 0-1.313.59-1.313 1.313 0 .48.139.925.365 1.312h-2.99v-5.25h5.936Zm-9.874-.656v4.594h-5.25v-5.25h5.317a3.28 3.28 0 0 0-.067.656Zm-6.562-.656v5.25h-6.563v-5.25h6.563Zm3.937-1.313h-6.562v-5.25h6.562v5.25Zm-10.5-11.812h6.563v5.25h-6.563V1.59ZM7.22 8.153h6.562v5.25H7.22v-5.25ZM3.28 14.716h6.563v5.25H3.28v-5.25ZM1.97 22.59v-1.313H24.28v1.313H1.97Zm36.75 3.532v-.907h1.312v1.563l-1.312-.656Z" fill="#535353"/><path d="M32.813 29.153a1.971 1.971 0 0 0-1.97 1.97c0 1.085.884 1.968 1.97 1.968a1.971 1.971 0 0 0 1.968-1.969 1.971 1.971 0 0 0-1.968-1.969Zm0 2.625a.657.657 0 1 1 0-1.313.657.657 0 0 1 0 1.313ZM11.813 29.153a1.971 1.971 0 0 0-1.97 1.97c0 1.085.884 1.968 1.97 1.968a1.971 1.971 0 0 0 1.968-1.969 1.971 1.971 0 0 0-1.969-1.969Zm0 2.625a.657.657 0 1 1 0-1.313.657.657 0 0 1 0 1.313Z" fill="#535353"/></svg>
